@extra/phlat-icons/symbolic-22/tap-create.svg

<svg xmlns="http://www.w3.org/2000/svg" version="1.1" viewBox="-2 -2 22 22"><g fill="#f1f2f2"><path d="m6.8555 2.9551a1 1 0 0 0 -0.168 0.0137 1 1 0 0 0 -0.6563 0.375l-2.8105 3.4687a1 1 0 0 0 -0.2207 0.625v0.5625 0.4375 6.5585c0 0.57 0.461 1 1 1h8.004c0.524 0 0.996-0.445 0.996-0.937v-6.059h-5v-1h-3v-0.2207l2.5938-3.1563a1 1 0 0 0 -0.7383 -1.6679zm1.1445 3.5605a1.0001 1.0001 0 0 0 0 0.9063v-0.9063z"/></g><path fill="#690" d="m11 2.007v1.996h-2v1.997h2v1.997h2v-1.997h2v-1.997h-2v-1.996z"/></svg>

<svg xmlns="http://www.w3.org/2000/svg" viewBox="-2 -2 22 22">
    <path d="M6.856 2.955a1 1 0 0 0-.168.014 1 1 0 0 0-.657.375l-2.81 3.469A1 1 0 0 0 3 7.438v7.558c0 .57.461 1 1 1h8.004c.524 0 .996-.445.996-.937V9H8V8H5v-.22l2.594-3.157a1 1 0 0 0-.739-1.668zM8 6.515a1 1 0 0 0 0 .907v-.906z" fill="#f1f2f2"/>
    <path fill="#690" d="M11 2.007v1.996H9V6h2v1.997h2V6h2V4.003h-2V2.007z"/>
</svg>
